!!!COM: Palestrina, Giovanni Perluigi da
!!!OPR: Missa Ave Maria (1594)
!!!OMD: Credo
!!!OTL: Et iterum
**kern	**kern	**kern	**kern
*Ibass	*Itenor	*Icalto	*Icant
!Bassus	!Tenor	!Altus	!Cantus
*clefF4	*clefGv2	*clefG2	*clefG2
*k[]	*k[]	*k[]	*k[]
*A:aeo	*A:aeo	*A:aeo	*A:aeo
*M4/2	*M4/2	*M4/2	*M4/2
=138	=138	=138	=138
0r	1d	0r	0r
.	2d	.	.
.	2d	.	.
=139	=139	=139	=139
1A	2c	0r	0r
.	2A	.	.
2A	2c	.	.
2A	2c	.	.
=140	=140	=140	=140
2G	2B	0r	0r
2E	4G	.	.
.	4A	.	.
2G	4B	.	.
.	4c	.	.
2F	[2d	.	.
=141	=141	=141	=141
1E	2d]	1r	0r
.	2c	.	.
2.D	[1f	1a	.
4E	.	.	.
=142	=142	=142	=142
4F	2f]	2a	0r
4G	.	.	.
4A	4e	2a	.
4B	4d	.	.
4c	2.e	2g	.
4B	.	.	.
4c	.	2e	.
4d	4d	.	.
=143	=143	=143	=143
2e	2c	2g	0r
1d	2d	2f	.
.	2A	2.e	.
2c#	2a	.	.
.	.	8d	.
.	.	8e	.
=144	=144	=144	=144
2.d	4a	4f	1dd
.	4g	4g	.
.	4f	1a	.
4c	4e	.	.
1B-	2d	.	2dd
.	2d	2g	2dd
=145	=145	=145	=145
0A	0e	2a	2cc
.	.	4r	2a
.	.	4a	.
.	.	2a	1cc
.	.	2a	.
=146	=146	=146	=146
0r	1r	2g	2b
.	.	2e	4g
.	.	.	4a
.	2r	2g	4b
.	.	.	4cc
.	2d	[2f	2dd
=147	=147	=147	=147
0r	2d	4f]	2.a
.	.	4e	.
.	2d	4f	.
.	.	4g	4b
.	2c	1a	4cc
.	.	.	4dd
.	2A	.	[2ee
=148	=148	=148	=148
0r	2c	4g	2ee]
.	.	4f	.
.	2B-	4e	1dd
.	.	4d	.
.	1A	1e	.
.	.	.	2cc#
=149	=149	=149	=149
2.D	2r	1d	1dd
.	1f	.	.
4E	.	.	.
4F	.	1a	2r
4G	.	.	.
4A	[2e	.	[2cc
4B	.	.	.
=150	=150	=150	=150
2c	2e]	1g	2cc]
2G	2.d	.	1b
1A	.	1e	.
.	8c#	.	.
.	8B	.	.
.	2c#	.	[2a
=151	=151	=151	=151
2D	2d	2f	4a]
.	.	.	8g
.	.	.	8f
2E	2B	4e	2g
.	.	4d	.
2.F	4A	2c	2.a
.	4B	.	.
.	[2c	2c	.
4E	.	.	4g
=152	=152	=152	=152
1D	4c]	1d	2f
.	8B	.	.
.	8A	.	.
.	2B	.	2f
1C	2.c	2r	[1e
.	.	[2g	.
.	4B	.	.
=153	=153	=153	=153
2r	1A	2g]	2e]
1c	.	2f	4d
.	.	.	4c
.	1G	1g	1d
2B	.	.	.
=154	=154	=154	=154
1c	0r	2e	1g
.	.	2g	.
2A	.	2f	1r
2c	.	2e	.
=155	=155	=155	=155
2B	1r	2g	2r
2A	.	1a	1cc
1d	2r	.	.
.	[2f	4g	2b
.	.	4f	.
=156	=156	=156	=156
1c	2f]	2g	1cc
.	2e	2.cc	.
1F	1f	.	2a
.	.	4b	.
.	.	2a	2cc
=157	=157	=157	=157
2G	2d	2g	2b
2.A	2f	2.c	2a
.	2e	.	2cc
4G	.	4B	.
2F	2d	2A	[2dd
=158	=158	=158	=158
1E	1g	1G	2dd]
.	.	.	2cc#
2.D	2.f	2A	1dd
.	.	[2a	.
4E	4e	.	.
=159	=159	=159	=159
2F	1d	2a]	2r
2G	.	2g	1dd
1A	1r	2f	.
.	.	2e	2cc
=160	=160	=160	=160
0r	0r	2d	2b
.	.	2f	2a
.	.	2e	2g
.	.	4d	2b
.	.	4e	.
=161	=161	=161	=161
0r	1r	4f	4a
.	.	4g	4b
.	.	2.a	4cc
.	.	.	4dd
.	2r	.	2ee
.	.	4g	.
.	[2d	4f	[2ff
.	.	4e	.
=162	=162	=162	=162
0r	2d]	2f	2ff]
.	2e	2g	1ee
.	2f	2a	.
.	2g	2b	2dd
=163	=163	=163	=163
2r	2.c	2cc	2ee
1A	.	1cc	1ee
.	4d	.	.
.	4e	.	.
.	4f	.	.
2B	[2g	2b	2dd
=164	=164	=164	=164
2c	2g]	1a	2cc
2d	2f#	.	2a
2.G	[1g	1g	2.b
4A	.	.	4cc
=165	=165	=165	=165
4B	2g]	0r	1dd
4c	.	.	.
1d	2f	.	.
.	1e	.	1ee
2c#	.	.	.
=166	=166	=166	=166
2d	2d	2r	2a
1D	1d	1a	1ff
2D	2d	2a	2ff
=167	=167	=167	=167
2A	2c	1a	2ee
2A	2A	.	2cc
2G	2B	2d	2dd
2F	2A	2a	2dd
=168	=168	=168	=168
1E	1B	2a	1ee
.	.	2g	.
[1D	[1d	2a	[1ff
.	.	2b-	.
=169	=169	=169	=169
2D]	2d]	1a	2ff]
2C#	2e	.	2ee
1D	1f	1a	1dd
=170	=170	=170	=170
1A	1e	2r	2.cc
.	.	1a	.
.	.	.	8b
.	.	.	8a
[1A	2r	.	4cc
.	.	.	4b
.	[2e	2a	4cc
.	.	.	4dd
=171	=171	=171	=171
2A]	2e]	1cc	1ee
2A	2e	.	.
1d	1f	2b-	1r
.	.	[2a	.
=172	=172	=172	=172
2c	2e	2a]	0r
2B-	2d	1g	.
2A	2c	.	.
2A	2c	2f#	.
=173	=173	=173	=173
1G	2d	2g	1.dd
.	1g	1b-	.
[1D	.	.	.
.	2f	2a	2dd
=174	=174	=174	=174
2D]	2.f	1a	2.dd
2D	.	.	.
.	4e	.	4ee
2D	2d	1a	2ff
2C#	2e	.	2ee
=175	=175	=175	=175
1D	1f	1a	1dd
1A	2.e	1a	2cc
.	.	.	2ee
.	4d	.	.
=176	=176	=176	=176
1A	2c	2r	4ee
.	.	.	4dd
.	2A	2a	4cc
.	.	.	4b
2A	2e	2cc	2a
2A	2e	2cc	2a
=177	=177	=177	=177
2A	2e	2cc	2a
2G#	2e	2b	2b
1A	1e	1a	1cc
=178	=178	=178	=178
1E	1e	1g#	1b
[1A	2r	[1a	[1cc
.	[2e	.	.
=179	=179	=179	=179
2A]	2e]	2a]	2cc]
2F	2f	2a	2cc
2F	2f	2a	2cc
2G	2d	2g	2b
=180	=180	=180	=180
1D	1.d	2f	2a
.	.	4d	4f
.	.	4e	4g
1r	.	4f	4a
.	.	4g	4b
.	4c	4a	4cc
.	4B	4b	4dd
=181	=181	=181	=181
2r	1A	2cc	2ee
4D	.	1a	1ff
4E	.	.	.
4F	1a	.	.
4G	.	.	.
4A	.	[2cc	[2ee
4B	.	.	.
=182	=182	=182	=182
2c	1g	4cc]	2ee]
.	.	4g	.
2G	.	2b-	1dd
1A	1e	1a	.
.	.	.	2cc#
=183	=183	=183	=183
1D	2f	2r	1dd
.	2f	2a	.
1r	2e	2g	2r
.	2d	2f	2dd
=184	=184	=184	=184
0r	1e	1g	2cc
.	.	.	2b
.	[1A	2e	1cc
.	.	4A	.
.	.	4B	.
=185	=185	=185	=185
0r	2A]	4c	2a
.	.	4d	.
.	2A	4e	2cc
.	.	4f#	.
.	2G	2g	2b
.	2F#	[2a	2a
=186	=186	=186	=186
1r	4G	2a]	1b
.	4A	.	.
.	4B	1g	.
.	4c	.	.
2r	1d	.	1a
2d	.	2f	.
=187	=187	=187	=187
2c	1r	2e	2cc
2B	.	2d	2dd
2.c	2r	2.e	2.g
.	2g	.	.
4B	.	4d	4g
=188	=188	=188	=188
1A	2f	2c	0a
.	2e	2c	.
2r	2.f	4d	.
.	.	4e	.
4D	.	4f	.
4E	4e	4g	.
=189	=189	=189	=189
4F	2d	1a	0r
4G	.	.	.
4A	2f	.	.
4B	.	.	.
2c	2e	1r	.
[2d	2d	.	.
=190	=190	=190	=190
2d]	1e	1r	2r
2c#	.	.	2ee
1d	2r	1a	2.ff
.	2d	.	.
.	.	.	4ff
=191	=191	=191	=191
0r	2.a	2.cc	2ee
.	.	.	2ff
.	4a	4cc	.
.	2g	2b	2.ee
.	2a	2cc	.
.	.	.	8dd
.	.	.	8cc
=192	=192	=192	=192
1r	2f	2a	2dd
.	2e	2g	2ee
1D	1d	1a	1ff
=193	=193	=193	=193
2.A	2c	2a	0ee
.	2c	2A	.
4A	.	.	.
2G	2B	2.e	.
2A	2c	.	.
.	.	4e	.
=194	=194	=194	=194
2F	4A	2d	0r
.	4B	.	.
2E	1c	2e	.
1D	.	2f	.
.	2B	2f	.
=195	=195	=195	=195
1C	2c	1e	2r
.	1g	.	1ee
2r	.	1c	.
[2c	2g	.	2ee
=196	=196	=196	=196
2c]	1g	2.cc	1.ee
2c	.	.	.
.	.	4cc	.
2c	1g	2cc	.
2G	.	[2b	2dd
=197	=197	=197	=197
1A	1e	2b]	1cc
.	.	1a	.
1E	1e	.	2b
.	.	2g	[2cc
=198	=198	=198	=198
2F	1.d	2a	2cc]
2G	.	2g	1b
1A	.	[1e	.
.	2c	.	[2a
=199	=199	=199	=199
1E	1B	1e]	4a]
.	.	.	4g#
.	.	.	2g#
1A	1c#	1e	1a
=200	=200	=200	=200
2r	2r	2r	2r
1A	1e	1a	1cc
2A	2e	2a	2cc
=201	=201	=201	=201
1d	1f	1a	1dd
1c	1g	1cc	1ee
=202	=202	=202	=202
0r	2.g	2.b	2.dd
.	4f	4a	4dd
.	2g	2b	2ee
.	2a	2cc	2ee
=203	=203	=203	=203
1r	4d	2a	1ff
.	4e	.	.
.	4f	2a	.
.	4g	.	.
[1A	1a	2.cc	2ee
.	.	.	2ee
.	.	4b	.
=204	=204	=204	=204
2A]	2e	2a	2cc
2B	2d	2g	2.dd
1c	1e	2a	.
.	.	.	4cc
.	.	[2g	[2cc
=205	=205	=205	=205
1d	1f	4g]	4cc]
.	.	4f	8b
.	.	.	8a
.	.	1f	2b
[1c	1g	.	2.cc
.	.	4e	.
.	.	4d	8b
.	.	.	8a
=206	=206	=206	=206
1c]	1r	2e	2g
.	.	4c	2.gg
.	.	4d	.
1r	1c	4e	.
.	.	4f	4ff
.	.	4g	2ee
.	.	4a	.
=207	=207	=207	=207
0r	1G	4b	1dd
.	.	4cc	.
.	.	1b	.
.	1A	.	1cc
.	.	[2a	.
=208	=208	=208	=208
1r	1e	4a]	2b
.	.	8g	.
.	.	8f	.
.	.	2g	2.cc
1F	1f	1a	.
.	.	.	4b
.	.	.	2a
=209	=209	=209	=209
1C	1e	1r	1g
1D	4d	1f	1r
.	4e	.	.
.	4f	.	.
.	4d	.	.
=210	=210	=210	=210
1A	2e	1c	0r
.	2.f	.	.
1B-	.	1d	.
.	4d	.	.
.	[2g	.	.
=211	=211	=211	=211
1A	4g]	1a	0r
.	4f	.	.
.	1f	.	.
2G	.	1b-	.
2G	2e	.	.
=212	=212	=212	=212
4F	2f	1a	1cc
4G	.	.	.
4A	4c	.	.
4B	4d	.	.
2.c	4e	2r	1g
.	4f	.	.
.	[2g	2e	.
4B	.	.	.
=213	=213	=213	=213
2A	2g]	2c	1a
1d	2f	2d	.
.	1e	1A	1ee
2c#	.	.	.
=214	=214	=214	=214
1d	1d	2a	1ff
.	.	4f	.
.	.	4g	.
2.A	1r	4a	2ee
.	.	4b	.
.	.	[2cc	4cc
4B	.	.	4dd
=215	=215	=215	=215
4c	0r	2cc]	4ee
4d	.	.	4ff
2e	.	2b	1gg
2c	.	1a	.
2d	.	.	2ff
=216	=216	=216	=216
1A	2r	1.cc	2ee
.	4c	.	1ee
.	4d	.	.
1r	4e	.	.
.	4f	.	.
.	[2g	4b	4dd
.	.	4a	4cc
=217	=217	=217	=217
0r	2g]	2b	4dd
.	.	.	4cc
.	2f	2.a	4b
.	.	.	4a
.	1e	.	1b
.	.	8g	.
.	.	8f#	.
.	.	2g	.
=218	=218	=218	=218
1F	2r	2c	1a
.	4A	4c	.
.	4B	4d	.
1C	4c	4e	1r
.	4d	4f	.
.	[2e	[2g	.
=219	=219	=219	=219
1D	2e]	4g]	2r
.	.	8f	.
.	.	8e	.
.	1d	2f	4a
.	.	.	4b
1A	.	2e	4cc
.	.	.	4dd
.	2c	2A	[2ee
=220	=220	=220	=220
1B-	1d	2r	4ee]
.	.	.	4dd
.	.	4d	1dd
.	.	4e	.
1A	2r	4f	.
.	.	4g	.
.	4A	[2a	2cc
.	4B	.	.
=221	=221	=221	=221
2F	4c	2a]	2a
.	4d	.	.
2C	2e	1g	2cc
1D	2.d	.	2b
.	.	2f	[2a
.	4c	.	.
=222	=222	=222	=222
1E	1B	1e	2a]
.	.	.	2g#
[1A	[1c#	[1e	[1a
=223	=223	=223	=223
1A]	1c#]	1e]	1a]
==	==	==	==
*-	*-	*-	*-
!!!CDT: 1525/^1526/-1594/2/2
!!!OCY: Italia
!!!AGN: Mass (Paraphrase)
!!!AST: renaissance, vocal
!!!ASW: Prayer
!!!PWK: Masses, Book 7
!!!RNB: Cadence finals: D
!!!YOR: Le Opere Complete, v. 23, p. 1
!!!YOO: Rome, Italy: Fratelli Scalera
!!!END: 1992//
!!!EED: John Miller
!!!YEC: Copyright 2000, John Miller
!!!YEN: United States of America
!!!YEM: Rights to all derivative electronic formats reserved.
!!!YEM: Refer to licensing agreement for further details.
!!!YEM: This file must be accompanied by the licensing agreement.
!!!YEM: A copy of the licensing agreement may be found at http://www.music-cog.ohio-state.edu/HumdrumDatabases/Palestrina/license.txt
!!!EMD: converted to Humdrum by Bret Aarden
